!!!OTL: SCHOEN ISTS UNTER FREIEM HIMMEL
!!!ARE: Europa, Mitteleuropa, Deutschland
!!!SCT: B0045
!!!YEM: Copyright 1995, estate of Helmut Schaffrath.
**kern
*ICvox
*Ivox
*M4/4
*k[]
*C:
{8.g
16g
=1
4.cc
8g
4.a
8a
=2
4g
4c
4r}
{8.g
16g
=3
4.cc
8g
4.a
8a
=4
4g
4c
4r}
{8g
8g
=5
4.dd
8dd
4.ee
8ee
=6
4dd
2r}
{8ee
8ee
=7
4.dd
8dd
4.ee
8ee
=8
4dd
2r}
{8g
8g
=9
4cc
4g
4e
4c
=10
4f
4d
4r}
{8d
8d
=11
4dd
4b
4g
4f
=12
4e
4c
4r}
{8e
8e
=13
4.f
8f
4.g
8g
=14
2a
4r}
{8e
8e
=15
4.f
8f
4.g
8g
=16
2c
4r}
==
!!!AGN: Kriegs -, Sieges -, Soldaten - Lied
!!!ONB: ESAC (Essen Associative Code) Database: BOEHME
!!!AMT: simple quadruple
!!!AIN: vox
!!!EED: Helmut Schaffrath
!!!EEV: 1.0
*-
